!!!COM: Robert Schumann
!!!CNT: Deutsch
!!!TXO: Deutsch
!!!OTL: Widmung
!!!LYR: Ru2ckert
!!!OPR: Myrten
!!!OPS: Op. 25
!!!ONM: No. 1
!!!ENC: Ben Fuhrman
!!!YOR: Schumann Lieder - Max Friedlaender, ed.,
!!!YOR: New York: C. F. Peters, Vol. 1
!!!ODT: 1840/
!!NB: Vocal melody and text only encoded.
!!NB: First instance of melodic material only encoded.
**kern	**silbe
*clefG2	*
*k[b-e-a-d-g-c-]	*
*M3/2	*
!!created: 5/8/06 10:12
!!proofed and posted: 5/8/06 10:12
!!edit time: 1 hour
=2	=2
{4b-	{du
8b-	me-
8b-	-ine
4.dd-	See-
8g-	-le,
4g-	du
4a-	mein
=3	=3
2b-}	Herz,}
2r	.
{4g-	{du
8g-	me-
8g-	-ine
=4	=4
[2ee-	Wonn',
4ee-]	|
4dd-	o
4cc-	du
4b-	mein
=5	=5
2a-}	Schmerz,}
2r	.
{4a-	{du
8f	mei-
8d-	ne
=6	=6
[2g-	Welt,
4g-]	|
4g-	in
4.cc-	der
8cc-	ich
=7	=7
2cc-	le-
4b-	-be,
4b-	mein
4.dd-	Him-
8g-	mel
=8	=8
[2cc-	du,
4cc-]	|
4cc-	da-
4.ff-	-rein
8ff-	ich
=9	=9
2ff-	schwe-
4ee-	-be,
4dd-	o
4cc-	du
4b-	mein
=10	=10
2a-}	Grab,}
4r	.
{4a-	{in
4b-	das
4cc-	hin-
=11	=11
4dd-	-ab
4g-	ich
[2g-	e-
4g-]	|
4cc-	-wig
=12	=12
4b-	mei-
4b-	-nen
(b-q	|
[2a-)	Kum-
4a-]	|
4b-	-mer
=13	=13
2g-}	gab!}
2r	.
2r	.
=14	=14
*k[f#c#]	*
{1f#	{Du
4e	blist
4f#	die
=15	=15
1g	Ruh;
2f#	du
=16	=16
[1e	bist
4e]	|
4f#	der
=17	=17
2d	Frie-
2A}	-den'}
2r	.
=18	=18
{1f#	{du
4e	bist
4f#	vom
=19	=19
1g	Him-
2f#	-mel
=20	=20
(1eS	mir
4.f#)	|
8d	be-
=21	=21
2f#	-schie-
4e}	-den.}
4r	.
{4e	Das
8c#	du
8A	mich
=22	=22
2d}	liebst,}
4r	.
{4d	{macht
4.g	mich
8g	mir
=23	=23
(2g	wert,
4f#)	|
4f#	dein
4.a	Blick
8d	hat
=24	=24
[2g	mich
4g]	|
4g	vor
4.ccn	mir
8ccn	ver-
=25	=25
(2ccn	-kla2rt,
4b)	|
4b	du
4b	hebst
4b	mich
=26	=26
*k[b-e-a-d-c-g-]	*
[2cc-	lie-
4cc-]	|
4cc-	-bend
4.dd-	u2-
8a-	ber
=27	=27
2b-}	mich,}
2r	.
{2b-	{mein
=28	=28
4.b-	gu-
8e-	-ter
4e-	Geist,
4e-	mein
4f	bess'-
4g-	-res
=29	=29
2a-}	Ich!}
2r	.
2r	.
=30	=30
{4b-	{Du
8b-	mei-
8b-	-ne
4.dd-	See-
8g-	-le,
4g-	du
4a-	mein
=31	=31
2b-}	Herz,}
2r	.
{4g-	{du
8g-	mei-
8g-	-ne
=32	=32
[2ee-	Wonn',
4ee-]	|
4dd-	o
4cc-	du
4b-	mein
=33	=33
2a-}	Schmerz,}
2r	.
{4a-	{du
8f	mei-
8d-	-ne
=34	=34
[2g-	Welt,
4g-]	|
4g-	in
4.cc-	der
8cc-	ich
=35	=35
2cc-	le-
4b-	-be,
4b-	mein
4.b-	Him-
8e-	-mel
=36	=36
[2a-	du,
4a-]	|
4a-	da-
4dd-	-rein
4dd-	ich
=37	=37
2dd-	schwe-
4cc-	-be,
4ee-	mein
4cc-	gu-
4a-	-ter
=38	=38
4g-	Geist,
4g-	mein
[2ee-	bess'-
4ee-]	|
4dd-	-res
=39	=39
2g-}	Ich!}
2r	.
2r	.
==	==
*-	*-
